resources/haticons/SVG/escalator.svg

<!-- Generated by IcoMoon.io -->
<svg version="1.1" xmlns="http://www.w3.org/2000/svg" width="24" height="24" viewBox="0 0 24 24">
<title>escalator</title>
<path d="M18.984 3h-13.969q-0.844 0-1.43 0.586t-0.586 1.43v13.969q0 0.844 0.586 1.43t1.43 0.586h13.969q0.844 0 1.43-0.586t0.586-1.43v-13.969q0-0.844-0.586-1.43t-1.43-0.586zM17.016 9h-1.734l-4.969 9h-3.328q-0.609 0-1.055-0.445t-0.445-1.055 0.445-1.055 1.055-0.445h1.734l4.969-9h3.328q0.609 0 1.055 0.445t0.445 1.055-0.445 1.055-1.055 0.445z"></path>
</svg>

<svg xmlns="http://www.w3.org/2000/svg" width="24" height="24"><path d="M18.984 3H5.015q-.844 0-1.43.586t-.586 1.43v13.969q0 .844.586 1.43t1.43.586h13.969q.844 0 1.43-.586t.586-1.43V5.016q0-.844-.586-1.43T18.984 3zm-1.968 6h-1.734l-4.969 9H6.985q-.609 0-1.055-.445T5.485 16.5t.445-1.055T6.985 15h1.734l4.969-9h3.328q.609 0 1.055.445t.445 1.055-.445 1.055T17.016 9z"/></svg>
